build/img/icon-3-stars.svg

<svg width="130" height="22" viewBox="0 0 130 22" fill="none" xmlns="http://www.w3.org/2000/svg">
  <path d="M9.23056 3.73209C9.53164 2.8144 10.8298 2.8144 11.1309 3.73209L12.2406 7.11461C12.3754 7.52525 12.7586 7.80288 13.1908 7.80288L16.7613 7.80288C17.7323 7.80288 18.1335 9.04743 17.3453 9.61459L14.4735 11.681C14.1196 11.9356 13.9715 12.3902 14.1074 12.8044L15.2082 16.1599C15.5099 17.0795 14.4596 17.8487 13.674 17.2834L10.7648 15.1901C10.4159 14.939 9.94558 14.939 9.59667 15.1901L6.68746 17.2834C5.90186 17.8487 4.85152 17.0795 5.15323 16.1599L6.2541 12.8044C6.39001 12.3902 6.24187 11.9356 5.88799 11.681L3.01614 9.61459C2.22792 9.04743 2.62914 7.80288 3.6002 7.80288L7.17065 7.80288C7.60283 7.80288 7.9861 7.52525 8.12082 7.11461L9.23056 3.73209Z" fill="#070707"/>
  <path d="M36.6402 3.73209C36.9413 2.8144 38.2395 2.8144 38.5406 3.73209L39.6503 7.11461C39.785 7.52525 40.1683 7.80288 40.6005 7.80288L44.1709 7.80288C45.142 7.80288 45.5432 9.04743 44.755 9.61459L41.8831 11.681C41.5293 11.9356 41.3811 12.3902 41.517 12.8044L42.6179 16.1599C42.9196 17.0795 41.8693 17.8487 41.0837 17.2834L38.1745 15.1901C37.8256 14.939 37.3552 14.939 37.0063 15.1901L34.0971 17.2834C33.3115 17.8487 32.2612 17.0795 32.5629 16.1599L33.6638 12.8044C33.7997 12.3902 33.6515 11.9356 33.2977 11.681L30.4258 9.61459C29.6376 9.04743 30.0388 7.80288 31.0099 7.80288L34.5803 7.80288C35.0125 7.80288 35.3958 7.52525 35.5305 7.11461L36.6402 3.73209Z" fill="#070707"/>
  <path d="M64.0499 3.73209C64.351 2.8144 65.6492 2.8144 65.9502 3.73209L67.06 7.11461C67.1947 7.52525 67.578 7.80288 68.0101 7.80288L71.5806 7.80288C72.5517 7.80288 72.9529 9.04743 72.1647 9.61459L69.2928 11.681C68.9389 11.9356 68.7908 12.3902 68.9267 12.8044L70.0276 16.1599C70.3293 17.0795 69.2789 17.8487 68.4933 17.2834L65.5841 15.1901C65.2352 14.939 64.7649 14.939 64.416 15.1901L61.5068 17.2834C60.7212 17.8487 59.6709 17.0795 59.9726 16.1599L61.0734 12.8044C61.2093 12.3902 61.0612 11.9356 60.7073 11.681L57.8355 9.61459C57.0473 9.04743 57.4485 7.80288 58.4195 7.80288L61.99 7.80288C62.4222 7.80288 62.8054 7.52525 62.9402 7.11461L64.0499 3.73209Z" fill="#070707"/>
  <path d="M92.8848 3.88795L93.9946 7.27048C94.1966 7.88643 94.7716 8.30288 95.4198 8.30288L98.9903 8.30288C99.4758 8.30288 99.6764 8.92515 99.2823 9.20873L96.4105 11.2752C95.8796 11.6571 95.6574 12.3389 95.8613 12.9603L96.9622 16.3158C97.113 16.7756 96.5878 17.1602 96.195 16.8775L93.2858 14.7842C92.7625 14.4076 92.057 14.4076 91.5336 14.7842L88.6244 16.8775C88.2316 17.1602 87.7065 16.7756 87.8573 16.3158L88.9582 12.9603C89.162 12.3389 88.9399 11.6571 88.409 11.2752L85.5372 9.20873C85.1431 8.92515 85.3437 8.30288 85.8292 8.30288L89.3997 8.30288C90.0479 8.30288 90.6228 7.88644 90.8249 7.27048L91.9347 3.88795C92.0852 3.42911 92.7343 3.42911 92.8848 3.88795Z" fill="#C4C4C4" stroke="#C4C4C4"/>
  <path d="M118.869 3.73209C119.17 2.8144 120.468 2.8144 120.77 3.73209L121.879 7.11461C122.014 7.52525 122.397 7.80288 122.829 7.80288L126.4 7.80288C127.371 7.80288 127.772 9.04743 126.984 9.61459L124.112 11.681C123.758 11.9356 123.61 12.3902 123.746 12.8044L124.847 16.1599C125.149 17.0795 124.098 17.8487 123.313 17.2834L120.403 15.1901C120.055 14.939 119.584 14.939 119.235 15.1901L116.326 17.2834C115.541 17.8487 114.49 17.0795 114.792 16.1599L115.893 12.8044C116.029 12.3902 115.881 11.9356 115.527 11.681L112.655 9.61459C111.867 9.04743 112.268 7.80288 113.239 7.80288L116.809 7.80288C117.241 7.80288 117.625 7.52525 117.759 7.11461L118.869 3.73209Z" fill="#C4C4C4"/>
</svg>

<svg width="130" height="22" fill="none" xmlns="http://www.w3.org/2000/svg"><path d="M9.23 3.732c.302-.918 1.6-.918 1.9 0l1.11 3.383a1 1 0 00.95.688h3.571c.971 0 1.373 1.244.584 1.812l-2.871 2.066a1 1 0 00-.367 1.123l1.101 3.356c.302.92-.748 1.689-1.534 1.123l-2.91-2.093a1 1 0 00-1.167 0l-2.91 2.093c-.785.566-1.835-.204-1.534-1.123l1.101-3.356a1 1 0 00-.366-1.123L3.016 9.615c-.788-.568-.387-1.812.584-1.812h3.57a1 1 0 00.95-.688l1.11-3.383zm27.41 0c.301-.918 1.6-.918 1.9 0l1.11 3.383a1 1 0 00.95.688h3.57c.972 0 1.373 1.244.585 1.812l-2.872 2.066a1 1 0 00-.366 1.123l1.1 3.356c.303.92-.748 1.689-1.533 1.123l-2.91-2.093a1 1 0 00-1.168 0l-2.909 2.093c-.785.566-1.836-.204-1.534-1.123l1.1-3.356a1 1 0 00-.365-1.123l-2.872-2.066c-.788-.568-.387-1.812.584-1.812h3.57a1 1 0 00.95-.688l1.11-3.383zm27.41 0c.301-.918 1.6-.918 1.9 0l1.11 3.383a1 1 0 00.95.688h3.57c.972 0 1.373 1.244.585 1.812l-2.872 2.066a1 1 0 00-.366 1.123l1.1 3.356c.302.92-.748 1.689-1.534 1.123l-2.909-2.093a1 1 0 00-1.168 0l-2.91 2.093c-.785.566-1.835-.204-1.533-1.123l1.1-3.356a1 1 0 00-.366-1.123l-2.871-2.066c-.789-.568-.387-1.812.584-1.812h3.57a1 1 0 00.95-.688l1.11-3.383z" fill="#070707"/><path d="M92.885 3.888l1.11 3.382a1.5 1.5 0 001.425 1.033h3.57a.5.5 0 01.292.906l-2.871 2.066a1.5 1.5 0 00-.55 1.685l1.101 3.356a.5.5 0 01-.767.562l-2.91-2.094a1.5 1.5 0 00-1.751 0l-2.91 2.094a.5.5 0 01-.767-.562l1.101-3.356a1.5 1.5 0 00-.549-1.685L85.537 9.21a.5.5 0 01.292-.906h3.57a1.5 1.5 0 001.426-1.033l1.11-3.382a.5.5 0 01.95 0z" fill="#C4C4C4" stroke="#C4C4C4"/><path d="M118.869 3.732c.301-.918 1.599-.918 1.901 0l1.109 3.383a1 1 0 00.95.688h3.571c.971 0 1.372 1.244.584 1.812l-2.872 2.066a1 1 0 00-.366 1.123l1.101 3.356c.302.92-.749 1.689-1.534 1.123l-2.91-2.093a1 1 0 00-1.168 0l-2.909 2.093c-.785.566-1.836-.204-1.534-1.123l1.101-3.356a1 1 0 00-.366-1.123l-2.872-2.066c-.788-.568-.387-1.812.584-1.812h3.57a1 1 0 00.95-.688l1.11-3.383z" fill="#C4C4C4"/></svg>
